outputs/icons/communication/chat_search_round.svg

<svg xmlns="http://www.w3.org/2000/svg" width="1200" height="1200" fill="none"><path fill="#000" d="M943.08 695.91h-24.84l-8.805-8.49c30.815-35.85 49.37-82.39 49.37-133.015 0-112.895-91.51-204.405-204.4-204.405C641.51 350 550 441.51 550 554.405c0 112.89 91.51 204.4 204.405 204.4 50.625 0 97.165-18.555 133.015-49.37l8.49 8.805v24.84l139.555 139.28c9.77 9.745 25.585 9.735 35.34-.02l11.535-11.535c9.755-9.755 9.765-25.57.02-35.34zm-188.675 0c-78.305 0-141.51-63.205-141.51-141.505 0-78.304 63.205-141.512 141.51-141.512 78.3 0 141.505 63.208 141.505 141.512 0 78.3-63.205 141.505-141.505 141.505"/><path fill="#000" d="M280 200h640c44 0 80 36 80 80v73.545A353 353 0 0 0 950 350c-10.105 0-20.11.428-30 1.268V292.5c0-6.904-5.595-12.5-12.5-12.5h-615c-6.904 0-12.5 5.596-12.5 12.5v517.32c0 11.14 13.465 16.715 21.339 8.84l55-55a12.5 12.5 0 0 1 8.839-3.66h239.947a347.3 347.3 0 0 0 24 80H360L221.339 978.66c-7.875 7.875-21.339 2.3-21.339-8.84V280c0-44 36-80 80-80"/></svg>

<svg width="1200" height="1200" viewBox="0 0 1200 1200" fill="none" xmlns="http://www.w3.org/2000/svg"><path d="M943.08 695.91H918.24L909.435 687.42C940.25 651.57 958.805 605.03 958.805 554.405C958.805 441.51 867.295 350 754.405 350C641.51 350 550 441.51 550 554.405C550 667.295 641.51 758.805 754.405 758.805C805.03 758.805 851.57 740.25 887.42 709.435L895.91 718.24V743.08L1035.465 882.36C1045.235 892.105 1061.05 892.095 1070.805 882.34L1082.34 870.805C1092.095 861.05 1092.105 845.235 1082.36 835.465L943.08 695.91ZM754.405 695.91C676.1 695.91 612.895 632.705 612.895 554.405C612.895 476.101 676.1 412.893 754.405 412.893C832.705 412.893 895.91 476.101 895.91 554.405C895.91 632.705 832.705 695.91 754.405 695.91Z" fill="black"/><path d="M280 200H920C964 200 1000 236 1000 280V353.545C983.67 351.209 966.975 350 950 350C939.895 350 929.89 350.428 920 351.268V292.5C920 285.596 914.405 280 907.5 280H292.5C285.596 280 280 285.596 280 292.5V809.82C280 820.96 293.465 826.535 301.339 818.66L356.339 763.66C358.683 761.315 361.863 760 365.178 760H605.125C609.95 787.94 618.09 814.745 629.125 840H360L221.339 978.66C213.464 986.535 200 980.96 200 969.82V280C200 236 236 200 280 200Z" fill="black"/></svg>
